images/contact-s-icon.svg

<svg width="24" height="24" viewBox="0 0 24 24" fill="none" xmlns="http://www.w3.org/2000/svg">
    <path fill-rule="evenodd" clip-rule="evenodd" d="M9.404 23.445L9.679 22.98C10.119 22.235 10.339 21.863 10.691 21.655C11.042 21.448 11.501 21.433 12.416 21.403C13.275 21.376 13.852 21.301 14.346 21.097C14.8606 20.8838 15.3282 20.5713 15.7219 20.1773C16.1157 19.7834 16.428 19.3157 16.641 18.801C16.964 18.022 16.964 17.034 16.964 15.058V14.21C16.964 11.433 16.964 10.045 16.339 9.025C15.989 8.455 15.509 7.975 14.939 7.625C13.919 7 12.531 7 9.754 7H7.21C4.433 7 3.045 7 2.025 7.625C1.455 7.975 0.975 8.455 0.625 9.025C0 10.045 0 11.433 0 14.21V15.058C0 17.034 -5.96046e-08 18.022 0.323 18.802C0.536082 19.3165 0.848433 19.784 1.24221 20.1778C1.63599 20.5716 2.10349 20.8839 2.618 21.097C3.112 21.301 3.688 21.377 4.548 21.403C5.464 21.433 5.922 21.448 6.273 21.655C6.623 21.863 6.844 22.235 7.285 22.98L7.56 23.445C7.97 24.137 8.994 24.137 9.404 23.445ZM12.193 15.482C12.4741 15.482 12.7437 15.3703 12.9425 15.1715C13.1413 14.9727 13.253 14.7031 13.253 14.422C13.253 14.1409 13.1413 13.8713 12.9425 13.6725C12.7437 13.4737 12.4741 13.362 12.193 13.362C11.9119 13.362 11.6423 13.4737 11.4435 13.6725C11.2447 13.8713 11.133 14.1409 11.133 14.422C11.133 14.7031 11.2447 14.9727 11.4435 15.1715C11.6423 15.3703 11.9119 15.482 12.193 15.482ZM9.543 14.422C9.543 14.5613 9.51557 14.6992 9.46227 14.8278C9.40898 14.9565 9.33086 15.0734 9.23239 15.1719C9.13391 15.2704 9.017 15.3485 8.88834 15.4018C8.75967 15.4551 8.62177 15.4825 8.4825 15.4825C8.34323 15.4825 8.20533 15.4551 8.07666 15.4018C7.948 15.3485 7.83109 15.2704 7.73261 15.1719C7.63414 15.0734 7.55602 14.9565 7.50273 14.8278C7.44943 14.6992 7.422 14.5613 7.422 14.422C7.422 14.1409 7.53368 13.8713 7.73247 13.6725C7.93126 13.4737 8.20087 13.362 8.482 13.362C8.76313 13.362 9.03274 13.4737 9.23153 13.6725C9.43032 13.8713 9.542 14.1409 9.542 14.422M4.77 15.482C5.05113 15.482 5.32074 15.3703 5.51953 15.1715C5.71832 14.9727 5.83 14.7031 5.83 14.422C5.83 14.1409 5.71832 13.8713 5.51953 13.6725C5.32074 13.4737 5.05113 13.362 4.77 13.362C4.48887 13.362 4.21926 13.4737 4.02047 13.6725C3.82168 13.8713 3.71 14.1409 3.71 14.422C3.71 14.7031 3.82168 14.9727 4.02047 15.1715C4.21926 15.3703 4.48887 15.482 4.77 15.482Z" fill="#2A7DEC"/>
    <path d="M15.4864 1C16.7534 1 17.7604 1 18.5684 1.077C19.3974 1.156 20.0984 1.321 20.7214 1.703C21.3627 2.09724 21.9022 2.63677 22.2964 3.278C22.6794 3.902 22.8444 4.603 22.9234 5.431C22.9994 6.239 22.9994 7.247 22.9994 8.513V9.379C22.9994 10.28 22.9994 10.998 22.9594 11.579C22.9194 12.174 22.8344 12.685 22.6364 13.163C22.3905 13.7565 22.0273 14.2943 21.5685 14.744C21.1097 15.1937 20.5648 15.5461 19.9664 15.78C19.8264 15.8347 19.7038 15.8797 19.5984 15.915H17.9484C17.9644 15.416 17.9644 14.822 17.9644 14.093V13.245C17.9644 10.468 17.9644 9.08 17.3394 8.06C16.9894 7.49 16.5094 7.01 15.9394 6.66C14.9194 6.035 13.5314 6.035 10.7544 6.035H8.21042C7.22442 6.035 6.41442 6.035 5.73242 6.063V4.413C5.76576 4.29967 5.80909 4.16767 5.86242 4.017C5.95109 3.75767 6.06642 3.51133 6.20842 3.278C6.60295 2.63665 7.14282 2.09712 7.78442 1.703C8.40842 1.321 9.10842 1.156 9.93742 1.077C10.7454 1 11.7524 1 13.0194 1H15.4864Z" fill="#D4E5FB"/>
</svg>

<svg width="24" height="24" fill="none" xmlns="http://www.w3.org/2000/svg"><path fill-rule="evenodd" clip-rule="evenodd" d="m9.404 23.445.275-.465c.44-.745.66-1.117 1.012-1.325.351-.207.81-.222 1.725-.252.859-.027 1.436-.102 1.93-.306a4.238 4.238 0 0 0 2.295-2.296c.323-.779.323-1.767.323-3.743v-.848c0-2.777 0-4.165-.625-5.185-.35-.57-.83-1.05-1.4-1.4C13.919 7 12.531 7 9.754 7H7.21c-2.777 0-4.165 0-5.185.625-.57.35-1.05.83-1.4 1.4C0 10.045 0 11.433 0 14.21v.848c0 1.976 0 2.964.323 3.744a4.24 4.24 0 0 0 2.295 2.295c.494.204 1.07.28 1.93.306.916.03 1.374.045 1.725.252.35.208.571.58 1.012 1.325l.275.465c.41.692 1.434.692 1.844 0Zm2.789-7.963a1.06 1.06 0 1 0 0-2.12 1.06 1.06 0 0 0 0 2.12Zm-2.65-1.06a1.06 1.06 0 1 1-2.118 0 1.06 1.06 0 0 1 2.117 0m-4.772 1.06a1.06 1.06 0 1 0 0-2.12 1.06 1.06 0 0 0 0 2.12Z" fill="#2A7DEC"/><path d="M15.486 1c1.267 0 2.274 0 3.082.077.83.079 1.53.244 2.153.626.642.394 1.181.934 1.575 1.575.383.624.548 1.325.627 2.153C23 6.239 23 7.247 23 8.513v.866c0 .901 0 1.619-.04 2.2-.04.595-.125 1.106-.323 1.584a4.77 4.77 0 0 1-2.67 2.617c-.14.055-.262.1-.368.135h-1.65c.016-.499.016-1.093.016-1.822v-.848c0-2.777 0-4.165-.625-5.185-.35-.57-.83-1.05-1.4-1.4-1.02-.625-2.408-.625-5.185-.625H8.21c-.986 0-1.796 0-2.478.028v-1.65a7.84 7.84 0 0 1 .13-.396c.09-.26.204-.506.346-.739a4.8 4.8 0 0 1 1.576-1.575c.624-.382 1.324-.547 2.153-.626C10.745 1 11.752 1 13.02 1h2.467Z" fill="#D4E5FB"/></svg>
